X:1
T:Connemara's Pet -- Reel
R:reel
B:Ryan's Mammoth Collection
Z: Contributed by Ray Davies  ray:davies99.freeserve.co.uk
M:C|
L:1/8
K:A
vcBcA EAAc|aece dBB2|cBcA EAAc|BdcB cAA2|
cBcA EAAc|aece dBB2|cBcA EAAc|BdcB cAA2::
cdef ecce|fddf ecBA|cdef eagf|edcB cAA2|
cdef ecce|fddf ecBA|cdef eagf|fedB cAA2:|
